X:15
T:The Baker.
C:J. Scott Skinner
R:reel
M:C
L:1/8
Z: Jason R. Fruit <jason@starlight-glimmer>
K:A
(d| c)AED CEAc | dFBA GBed | cAED CEAc | x3g aAA & dfBd cAA :| g | !f!a/a/a (Aa) fedc | BFBA !<(!GBe!<)!g |
a/a/a (Aa) e/e/e (Aa) | fagb {g}aAAe | .a.A.a.g .f.e.d.c | .B.F.B.A .G.B.e.d | .c.A .E.D .C.E.A.c | dfBg {g}aAA |]

